X: 10574
T: Dot Cat's Midnight Mischief
R: jig
M: 6/8
K: Aminor
E2B BAG|ABG FED|E2B BAG|eBd e2E|E2B BAG|
ABG FED|1 EFG eBd|edF E3:|2 EFG edB|edF E3||
|:eBe bag|abe e2d|eBe bag|abe d3|
eBe bag|abe e2d|deb abg|efd e3:|

